X: 1568
T: Angus Allan & Dan J's
R: strathspey
M: 4/4
K: Dmajor
O:Cape Breton
F>G|:A>BA>F !uppermordent!E2F>uG|A>B!uppermordent!A>F A/A/A {A}!mordent!c2|d<BA>F !uppermordent!E>DE>F|1 D<B,!mordent!C>A,!uppermordent!D2(3DFG:|2 D<B,!mordent!C>A,!uppermordent!D2(3DDF||
|:A>fa>f !mordent!g2f>e|d>fa>b !uppermordent!a>fe>f|d<B!uppermordent!A>F !uppermordent!E>D (3EEF|1 D<B, (3CCA,!uppermordent!D2 (3DDE:|2 D<B, (3CCA,!uppermordent!D2(3DFG||

